assets/Hut/Flat/hut_flat.svg

<svg width="32" height="32" viewBox="0 0 32 32" fill="none" xmlns="http://www.w3.org/2000/svg">
<path d="M28 30H19.57L16.07 24.69L12.57 30H4V17H28V30Z" fill="#6D4534"/>
<path d="M29.93 17.855C29.93 18.485 29.42 18.995 28.79 18.995C28.72 18.995 28.63 18.985 28.56 18.975C27.27 18.845 27.16 17.965 25.66 17.965C24.05 17.965 24.05 18.995 22.44 18.995C20.83 18.995 20.83 17.965 19.22 17.965C17.61 17.965 17.61 18.995 16 18.995C14.39 18.995 14.39 17.965 12.79 17.965C11.18 17.965 11.18 18.995 9.58 18.995C7.97 18.995 7.97 17.965 6.37 17.965C4.76 17.965 4.75999 18.995 3.14999 18.995C3.13999 18.995 3.13999 18.995 3.12999 18.995H3.12C2.49 18.985 2 18.485 2 17.855C2 17.695 2.03 17.545 2.08 17.405C2.09 17.395 2.09999 17.385 2.09999 17.365C2.14999 17.285 2.20999 17.205 2.25999 17.135C3.03999 15.875 3.86999 14.655 4.73999 13.475C7.38999 9.84501 10.26 6.77501 13.56 3.93501C15.01 2.68501 17.16 2.68501 18.59 3.95501C21.77 6.78501 24.67 9.88501 27.25 13.475C28.12 14.675 28.95 15.915 29.74 17.185C29.78 17.255 29.82 17.335 29.87 17.405C29.9 17.545 29.93 17.695 29.93 17.855Z" fill="#F3AD61"/>
<path d="M20 30H12V25.22C12 23.99 13.1429 23 14.5371 23H17.4514C18.8571 23 19.9886 24 19.9886 25.22V30H20Z" fill="#212121"/>
</svg>

<svg xmlns="http://www.w3.org/2000/svg" width="32" height="32" fill="none"><path fill="#6D4534" d="M28 30h-8.43l-3.5-5.31-3.5 5.31H4V17h24v13Z"/><path fill="#F3AD61" d="M29.93 17.855c0 .63-.51 1.14-1.14 1.14-.07 0-.16-.01-.23-.02-1.29-.13-1.4-1.01-2.9-1.01-1.61 0-1.61 1.03-3.22 1.03s-1.61-1.03-3.22-1.03-1.61 1.03-3.22 1.03-1.61-1.03-3.21-1.03c-1.61 0-1.61 1.03-3.21 1.03-1.61 0-1.61-1.03-3.21-1.03-1.61 0-1.61 1.03-3.22 1.03h-.03c-.63-.01-1.12-.51-1.12-1.14 0-.16.03-.31.08-.45.01-.01.02-.02.02-.04.05-.08.11-.16.16-.23.78-1.26 1.61-2.48 2.48-3.66 2.65-3.63 5.52-6.7 8.82-9.54 1.45-1.25 3.6-1.25 5.03.02 3.18 2.83 6.08 5.93 8.66 9.52.87 1.2 1.7 2.44 2.49 3.71.04.07.08.15.13.22.03.14.06.29.06.45Z"/><path fill="#212121" d="M20 30h-8v-4.78c0-1.23 1.143-2.22 2.537-2.22h2.914c1.406 0 2.538 1 2.538 2.22V30H20Z"/></svg>
